web/images/natural-events/event-water-color.svg

<?xml version="1.0" encoding="UTF-8" standalone="no"?><!DOCTYPE svg PUBLIC "-//W3C//DTD SVG 1.1//EN" "http://www.w3.org/Graphics/SVG/1.1/DTD/svg11.dtd"><svg width="100%" height="100%" viewBox="0 0 1000 1000" version="1.1" xmlns="http://www.w3.org/2000/svg" xmlns:xlink="http://www.w3.org/1999/xlink" xml:space="preserve" style="fill-rule:evenodd;clip-rule:evenodd;stroke-linejoin:round;stroke-miterlimit:1.41421;"><circle cx="500" cy="500" r="500" style="fill:#457d73;"/><path d="M796.765,453.146l89.577,159.681c2.316,-2.063 4.593,-4.164 6.605,-6.053l-82.254,-146.625c4.914,4.496 10.486,9.329 14.307,11.851c1.166,0.77 2.361,1.508 3.579,2.207l70.871,126.334c0.356,-0.349 0.55,-0.541 0.55,-0.541c0,0 10.388,10.284 18.863,17.32l-77.214,-137.641c2.808,0.72 5.614,1.121 8.351,1.121c0.739,0 1.482,-0.029 2.229,-0.087l80.42,143.357c-53.917,188.106 -227.315,325.93 -432.649,325.93c-211.78,0 -389.588,-146.614 -437.371,-343.792l9.774,17.424c0.88,-0.525 1.746,-1.07 2.597,-1.632c1.344,-0.887 2.905,-2.061 4.578,-3.405l-22.855,-40.741c-1.394,-7.978 -2.577,-16.028 -3.544,-24.144l33.163,59.117c2.316,-2.063 4.593,-4.164 6.605,-6.053l-41.806,-74.523c-0.46,-6.478 -0.783,-12.994 -0.964,-19.545l49.273,87.835c0.356,-0.349 0.55,-0.541 0.55,-0.541c0,0 10.388,10.284 18.863,17.32l-68.831,-122.698c0.054,-4.626 0.178,-9.234 0.372,-13.825c0.605,-0.009 1.214,-0.037 1.825,-0.084l82.141,146.425c3.922,1.719 7.962,2.942 11.923,3.428l-85.11,-151.718c2.73,-0.9 5.439,-2.076 8.065,-3.45l86.834,154.792c2.848,-0.551 5.715,-1.453 8.531,-2.619l-87.93,-156.745c2.054,-1.501 4.437,-3.453 6.88,-5.561l88.84,158.367c0.88,-0.525 1.746,-1.07 2.597,-1.632c1.344,-0.887 2.905,-2.061 4.578,-3.405l-89.356,-159.286c2.515,-2.317 4.809,-4.496 6.543,-6.163l89.577,159.681c2.316,-2.063 4.593,-4.164 6.605,-6.053l-82.254,-146.625c4.914,4.496 10.486,9.329 14.307,11.851c1.166,0.77 2.361,1.508 3.579,2.207l70.871,126.334c0.356,-0.349 0.55,-0.541 0.55,-0.541c0,0 10.388,10.284 18.863,17.32l-77.214,-137.641c2.808,0.72 5.614,1.121 8.351,1.121c0.739,0 1.482,-0.029 2.229,-0.087l82.141,146.425c3.922,1.719 7.962,2.942 11.923,3.428l-85.11,-151.718c2.73,-0.9 5.439,-2.076 8.065,-3.45l86.834,154.792c2.848,-0.551 5.715,-1.453 8.531,-2.619l-87.93,-156.745c2.054,-1.501 4.437,-3.453 6.88,-5.561l88.84,158.367c0.88,-0.525 1.746,-1.07 2.597,-1.632c1.344,-0.887 2.905,-2.061 4.578,-3.405l-89.356,-159.286c2.515,-2.317 4.809,-4.496 6.543,-6.163l89.577,159.681c2.316,-2.063 4.593,-4.164 6.605,-6.053l-82.254,-146.625c4.914,4.496 10.486,9.329 14.307,11.851c1.166,0.77 2.361,1.508 3.579,2.207l70.871,126.334c0.356,-0.349 0.55,-0.541 0.55,-0.541c0,0 10.388,10.284 18.863,17.32l-77.214,-137.641c2.808,0.72 5.614,1.121 8.351,1.121c0.739,0 1.482,-0.029 2.229,-0.087l82.141,146.425c3.922,1.719 7.962,2.942 11.923,3.428l-85.11,-151.718c2.73,-0.9 5.439,-2.076 8.065,-3.45l86.834,154.792c2.848,-0.551 5.715,-1.453 8.531,-2.619l-87.93,-156.745c2.054,-1.501 4.437,-3.453 6.88,-5.561l88.84,158.367c0.88,-0.525 1.746,-1.07 2.597,-1.632c1.344,-0.887 2.905,-2.061 4.578,-3.405l-89.356,-159.286c2.515,-2.317 4.809,-4.496 6.543,-6.163l89.577,159.681c2.316,-2.063 4.593,-4.164 6.605,-6.053l-82.254,-146.625c4.914,4.496 10.486,9.329 14.307,11.851c1.166,0.77 2.361,1.508 3.579,2.207l70.871,126.334c0.356,-0.349 0.55,-0.541 0.55,-0.541c0,0 10.388,10.284 18.863,17.32l-77.214,-137.641c2.808,0.72 5.614,1.121 8.351,1.121c0.739,0 1.482,-0.029 2.229,-0.087l82.141,146.425c3.922,1.719 7.962,2.942 11.923,3.428l-85.11,-151.718c2.73,-0.9 5.439,-2.076 8.065,-3.45l86.834,154.792c2.848,-0.551 5.715,-1.453 8.531,-2.619l-87.93,-156.745c2.054,-1.501 4.437,-3.453 6.88,-5.561l88.84,158.367c0.88,-0.525 1.746,-1.07 2.597,-1.632c1.344,-0.887 2.905,-2.061 4.578,-3.405l-89.356,-159.286c2.515,-2.317 4.809,-4.496 6.543,-6.163l89.577,159.681c2.316,-2.063 4.593,-4.164 6.605,-6.053l-82.254,-146.625c4.914,4.496 10.486,9.329 14.307,11.851c1.166,0.77 2.361,1.508 3.579,2.207l70.871,126.334c0.356,-0.349 0.55,-0.541 0.55,-0.541c0,0 10.388,10.284 18.863,17.32l-77.214,-137.641c2.808,0.72 5.614,1.121 8.351,1.121c0.739,0 1.482,-0.029 2.229,-0.087l82.141,146.425c3.922,1.719 7.962,2.942 11.923,3.428l-85.11,-151.718c2.73,-0.9 5.439,-2.076 8.065,-3.45l86.834,154.792c2.848,-0.551 5.715,-1.453 8.531,-2.619l-87.93,-156.745c2.054,-1.501 4.437,-3.453 6.88,-5.561l88.84,158.367c0.88,-0.525 1.746,-1.07 2.597,-1.632c1.344,-0.887 2.905,-2.061 4.578,-3.405l-89.356,-159.286c2.515,-2.317 4.809,-4.496 6.543,-6.163l89.577,159.681c2.316,-2.063 4.593,-4.164 6.605,-6.053l-82.254,-146.625c4.914,4.496 10.486,9.329 14.307,11.851c1.166,0.77 2.361,1.508 3.579,2.207l70.871,126.334c0.356,-0.349 0.55,-0.541 0.55,-0.541c0,0 10.388,10.284 18.863,17.32l-77.214,-137.641c2.808,0.72 5.614,1.121 8.351,1.121c0.739,0 1.482,-0.029 2.229,-0.087l82.141,146.425c3.922,1.719 7.962,2.942 11.923,3.428l-85.11,-151.718c2.73,-0.9 5.439,-2.076 8.065,-3.45l86.834,154.792c2.848,-0.551 5.715,-1.453 8.531,-2.619l-87.93,-156.745c2.054,-1.501 4.437,-3.453 6.88,-5.561l88.84,158.367c0.88,-0.525 1.746,-1.07 2.597,-1.632c1.344,-0.887 2.905,-2.061 4.578,-3.405l-89.356,-159.286c2.515,-2.317 4.809,-4.496 6.543,-6.163l89.577,159.681c2.316,-2.063 4.593,-4.164 6.605,-6.053l-82.254,-146.625c4.914,4.496 10.486,9.329 14.307,11.851c1.166,0.77 2.361,1.508 3.579,2.207l70.871,126.334c0.356,-0.349 0.55,-0.541 0.55,-0.541c0,0 10.388,10.284 18.863,17.32l-77.214,-137.641c2.808,0.72 5.614,1.121 8.351,1.121c0.739,0 1.482,-0.029 2.229,-0.087l82.141,146.425c3.922,1.719 7.962,2.942 11.923,3.428l-85.11,-151.718c2.73,-0.9 5.439,-2.076 8.065,-3.45l86.834,154.792c2.848,-0.551 5.715,-1.453 8.531,-2.619l-87.93,-156.745c2.054,-1.501 4.437,-3.453 6.88,-5.561l88.84,158.367c0.88,-0.525 1.746,-1.07 2.597,-1.632c1.344,-0.887 2.905,-2.061 4.578,-3.405l-89.356,-159.286c2.515,-2.317 4.809,-4.496 6.543,-6.163l89.577,159.681c2.316,-2.063 4.593,-4.164 6.605,-6.053l-82.254,-146.625c4.914,4.496 10.486,9.329 14.307,11.851c1.166,0.77 2.361,1.508 3.579,2.207l70.871,126.334c0.356,-0.349 0.55,-0.541 0.55,-0.541c0,0 10.388,10.284 18.863,17.32l-77.214,-137.641c2.808,0.72 5.614,1.121 8.351,1.121c0.739,0 1.482,-0.029 2.229,-0.087l82.141,146.425c3.922,1.719 7.962,2.942 11.923,3.428l-85.11,-151.718c2.73,-0.9 5.439,-2.076 8.065,-3.45l86.834,154.792c2.848,-0.551 5.715,-1.453 8.531,-2.619l-87.93,-156.745c2.054,-1.501 4.437,-3.453 6.88,-5.561l88.84,158.367c0.88,-0.525 1.746,-1.07 2.597,-1.632c1.344,-0.887 2.905,-2.061 4.578,-3.405l-89.356,-159.286c2.515,-2.317 4.809,-4.496 6.543,-6.163Zm72.483,22.252l69.672,124.199c-0.945,4.176 -1.948,8.331 -3.009,12.462l-74.728,-133.211c2.73,-0.9 5.439,-2.076 8.065,-3.45Zm14.315,-10.133l60.512,107.869c-0.74,4.525 -1.549,9.027 -2.423,13.506l-64.969,-115.814c2.054,-1.501 4.437,-3.453 6.88,-5.561Zm13.202,-12.119l51.086,91.066c-0.485,4.96 -1.05,9.895 -1.694,14.806l-55.935,-99.709c2.515,-2.317 4.809,-4.496 6.543,-6.163Zm13.928,7.003c4.914,4.496 10.486,9.329 14.307,11.851c1.166,0.77 2.361,1.508 3.579,2.207l21.26,37.898c-0.146,5.53 -0.392,11.034 -0.736,16.513l-38.41,-68.469Zm30.956,19.53c2.669,0.684 5.338,1.081 7.947,1.118c0.192,4.553 0.316,9.122 0.371,13.709l-8.318,-14.827Z" style="fill:#fff;"/></svg>

<?xml version="1.0" encoding="UTF-8" standalone="no"?>
<!DOCTYPE svg PUBLIC "-//W3C//DTD SVG 1.1//EN" "http://www.w3.org/Graphics/SVG/1.1/DTD/svg11.dtd">
<svg width="100%" height="100%" viewBox="0 0 1000 1000" version="1.1" xmlns="http://www.w3.org/2000/svg" xmlns:xlink="http://www.w3.org/1999/xlink" xml:space="preserve" style="fill-rule:evenodd;clip-rule:evenodd;stroke-linejoin:round;stroke-miterlimit:1.41421;">
    <circle cx="500" cy="500" r="500" style="fill:rgb(47,149,128);"/>
    <path d="M796.765,453.146L886.342,612.827C888.658,610.764 890.935,608.663 892.947,606.774L810.693,460.149C815.607,464.645 821.179,469.478 825,472C826.166,472.77 827.361,473.508 828.579,474.207L899.45,600.541C899.806,600.192 900,600 900,600C900,600 910.388,610.284 918.863,617.32L841.649,479.679C844.457,480.399 847.263,480.8 850,480.8C850.739,480.8 851.482,480.771 852.229,480.713L932.649,624.07C878.732,812.176 705.334,950 500,950C288.22,950 110.412,803.386 62.629,606.208L72.403,623.632C73.283,623.107 74.149,622.562 75,622C76.344,621.113 77.905,619.939 79.578,618.595L56.723,577.854C55.329,569.876 54.146,561.826 53.179,553.71L86.342,612.827C88.658,610.764 90.935,608.663 92.947,606.774L51.141,532.251C50.681,525.773 50.358,519.257 50.177,512.706L99.45,600.541C99.806,600.192 100,600 100,600C100,600 110.388,610.284 118.863,617.32L50.032,494.622C50.086,489.996 50.21,485.388 50.404,480.797C51.009,480.788 51.618,480.76 52.229,480.713L134.37,627.138C138.292,628.857 142.332,630.08 146.293,630.566L61.183,478.848C63.913,477.948 66.622,476.772 69.248,475.398L156.082,630.19C158.93,629.639 161.797,628.737 164.613,627.571L76.683,470.826C78.737,469.325 81.12,467.373 83.563,465.265L172.403,623.632C173.283,623.107 174.149,622.562 175,622C176.344,621.113 177.905,619.939 179.578,618.595L90.222,459.309C92.737,456.992 95.031,454.813 96.765,453.146L186.342,612.827C188.658,610.764 190.935,608.663 192.947,606.774L110.693,460.149C115.607,464.645 121.179,469.478 125,472C126.166,472.77 127.361,473.508 128.579,474.207L199.45,600.541C199.806,600.192 200,600 200,600C200,600 210.388,610.284 218.863,617.32L141.649,479.679C144.457,480.399 147.263,480.8 150,480.8C150.739,480.8 151.482,480.771 152.229,480.713L234.37,627.138C238.292,628.857 242.332,630.08 246.293,630.566L161.183,478.848C163.913,477.948 166.622,476.772 169.248,475.398L256.082,630.19C258.93,629.639 261.797,628.737 264.613,627.571L176.683,470.826C178.737,469.325 181.12,467.373 183.563,465.265L272.403,623.632C273.283,623.107 274.149,622.562 275,622C276.344,621.113 277.905,619.939 279.578,618.595L190.222,459.309C192.737,456.992 195.031,454.813 196.765,453.146L286.342,612.827C288.658,610.764 290.935,608.663 292.947,606.774L210.693,460.149C215.607,464.645 221.179,469.478 225,472C226.166,472.77 227.361,473.508 228.579,474.207L299.45,600.541C299.806,600.192 300,600 300,600C300,600 310.388,610.284 318.863,617.32L241.649,479.679C244.457,480.399 247.263,480.8 250,480.8C250.739,480.8 251.482,480.771 252.229,480.713L334.37,627.138C338.292,628.857 342.332,630.08 346.293,630.566L261.183,478.848C263.913,477.948 266.622,476.772 269.248,475.398L356.082,630.19C358.93,629.639 361.797,628.737 364.613,627.571L276.683,470.826C278.737,469.325 281.12,467.373 283.563,465.265L372.403,623.632C373.283,623.107 374.149,622.562 375,622C376.344,621.113 377.905,619.939 379.578,618.595L290.222,459.309C292.737,456.992 295.031,454.813 296.765,453.146L386.342,612.827C388.658,610.764 390.935,608.663 392.947,606.774L310.693,460.149C315.607,464.645 321.179,469.478 325,472C326.166,472.77 327.361,473.508 328.579,474.207L399.45,600.541C399.806,600.192 400,600 400,600C400,600 410.388,610.284 418.863,617.32L341.649,479.679C344.457,480.399 347.263,480.8 350,480.8C350.739,480.8 351.482,480.771 352.229,480.713L434.37,627.138C438.292,628.857 442.332,630.08 446.293,630.566L361.183,478.848C363.913,477.948 366.622,476.772 369.248,475.398L456.082,630.19C458.93,629.639 461.797,628.737 464.613,627.571L376.683,470.826C378.737,469.325 381.12,467.373 383.563,465.265L472.403,623.632C473.283,623.107 474.149,622.562 475,622C476.344,621.113 477.905,619.939 479.578,618.595L390.222,459.309C392.737,456.992 395.031,454.813 396.765,453.146L486.342,612.827C488.658,610.764 490.935,608.663 492.947,606.774L410.693,460.149C415.607,464.645 421.179,469.478 425,472C426.166,472.77 427.361,473.508 428.579,474.207L499.45,600.541C499.806,600.192 500,600 500,600C500,600 510.388,610.284 518.863,617.32L441.649,479.679C444.457,480.399 447.263,480.8 450,480.8C450.739,480.8 451.482,480.771 452.229,480.713L534.37,627.138C538.292,628.857 542.332,630.08 546.293,630.566L461.183,478.848C463.913,477.948 466.622,476.772 469.248,475.398L556.082,630.19C558.93,629.639 561.797,628.737 564.613,627.571L476.683,470.826C478.737,469.325 481.12,467.373 483.563,465.265L572.403,623.632C573.283,623.107 574.149,622.562 575,622C576.344,621.113 577.905,619.939 579.578,618.595L490.222,459.309C492.737,456.992 495.031,454.813 496.765,453.146L586.342,612.827C588.658,610.764 590.935,608.663 592.947,606.774L510.693,460.149C515.607,464.645 521.179,469.478 525,472C526.166,472.77 527.361,473.508 528.579,474.207L599.45,600.541C599.806,600.192 600,600 600,600C600,600 610.388,610.284 618.863,617.32L541.649,479.679C544.457,480.399 547.263,480.8 550,480.8C550.739,480.8 551.482,480.771 552.229,480.713L634.37,627.138C638.292,628.857 642.332,630.08 646.293,630.566L561.183,478.848C563.913,477.948 566.622,476.772 569.248,475.398L656.082,630.19C658.93,629.639 661.797,628.737 664.613,627.571L576.683,470.826C578.737,469.325 581.12,467.373 583.563,465.265L672.403,623.632C673.283,623.107 674.149,622.562 675,622C676.344,621.113 677.905,619.939 679.578,618.595L590.222,459.309C592.737,456.992 595.031,454.813 596.765,453.146L686.342,612.827C688.658,610.764 690.935,608.663 692.947,606.774L610.693,460.149C615.607,464.645 621.179,469.478 625,472C626.166,472.77 627.361,473.508 628.579,474.207L699.45,600.541C699.806,600.192 700,600 700,600C700,600 710.388,610.284 718.863,617.32L641.649,479.679C644.457,480.399 647.263,480.8 650,480.8C650.739,480.8 651.482,480.771 652.229,480.713L734.37,627.138C738.292,628.857 742.332,630.08 746.293,630.566L661.183,478.848C663.913,477.948 666.622,476.772 669.248,475.398L756.082,630.19C758.93,629.639 761.797,628.737 764.613,627.571L676.683,470.826C678.737,469.325 681.12,467.373 683.563,465.265L772.403,623.632C773.283,623.107 774.149,622.562 775,622C776.344,621.113 777.905,619.939 779.578,618.595L690.222,459.309C692.737,456.992 695.031,454.813 696.765,453.146L786.342,612.827C788.658,610.764 790.935,608.663 792.947,606.774L710.693,460.149C715.607,464.645 721.179,469.478 725,472C726.166,472.77 727.361,473.508 728.579,474.207L799.45,600.541C799.806,600.192 800,600 800,600C800,600 810.388,610.284 818.863,617.32L741.649,479.679C744.457,480.399 747.263,480.8 750,480.8C750.739,480.8 751.482,480.771 752.229,480.713L834.37,627.138C838.292,628.857 842.332,630.08 846.293,630.566L761.183,478.848C763.913,477.948 766.622,476.772 769.248,475.398L856.082,630.19C858.93,629.639 861.797,628.737 864.613,627.571L776.683,470.826C778.737,469.325 781.12,467.373 783.563,465.265L872.403,623.632C873.283,623.107 874.149,622.562 875,622C876.344,621.113 877.905,619.939 879.578,618.595L790.222,459.309C792.737,456.992 795.031,454.813 796.765,453.146ZM869.248,475.398L938.92,599.597C937.975,603.773 936.972,607.928 935.911,612.059L861.183,478.848C863.913,477.948 866.622,476.772 869.248,475.398ZM883.563,465.265L944.075,573.134C943.335,577.659 942.526,582.161 941.652,586.64L876.683,470.826C878.737,469.325 881.12,467.373 883.563,465.265ZM896.765,453.146L947.851,544.212C947.366,549.172 946.801,554.107 946.157,559.018L890.222,459.309C892.737,456.992 895.031,454.813 896.765,453.146ZM910.693,460.149C915.607,464.645 921.179,469.478 925,472C926.166,472.77 927.361,473.508 928.579,474.207L949.839,512.105C949.693,517.635 949.447,523.139 949.103,528.618L910.693,460.149ZM941.649,479.679C944.318,480.363 946.987,480.76 949.596,480.797C949.788,485.35 949.912,489.919 949.967,494.506L941.649,479.679ZM900,450M800,450M700,450M600,450M500,450M400,450M300,450" style="fill:white;"/>
</svg>
